assets/icons/qvision/queue_play_next.svg

<svg xmlns="http://www.w3.org/2000/svg" enable-background="new 0 0 24 24" height="24" viewBox="0 0 24 24" width="24"><g><rect fill="none" height="24" width="24" x="0"/></g><g><g><g><path d="M21,3H3C1.89,3,1,3.89,1,5v12c0,1.1,0.89,2,2,2h5v2h8v-2h2v-2H3V5h18v8h2V5C23,3.89,22.1,3,21,3z M13,10V7h-2v3H8v2h3v3 h2v-3h3v-2H13z M24,18l-4.5,4.5L18,21l3-3l-3-3l1.5-1.5L24,18z"/></g></g></g></svg>

<svg width="24" height="24" viewBox="0 0 24 24" fill="none" xmlns="http://www.w3.org/2000/svg">
<g clip-path="url(#clip0_147_1571)">
<path d="M21 3H3C1.89 3 1 3.89 1 5V17C1 18.1 1.89 19 3 19H8V21H16V19H18V17H3V5H21V13H23V5C23 3.89 22.1 3 21 3ZM13 10V7H11V10H8V12H11V15H13V12H16V10H13ZM24 18L19.5 22.5L18 21L21 18L18 15L19.5 13.5L24 18Z" fill="#323232"/>
</g>
<defs>
<clipPath id="clip0_147_1571">
<rect width="24" height="24" fill="white"/>
</clipPath>
</defs>
</svg>
